build/img/icons/wave.svg

<svg width="36" height="47" viewBox="0 0 36 47" fill="none" xmlns="http://www.w3.org/2000/svg">
<path fill-rule="evenodd" clip-rule="evenodd" d="M23.3569 38.7473C26.9662 39.4073 29.4283 40.7116 29.4283 42.2144C29.4283 44.3837 24.3111 46.143 17.9997 46.143C11.6876 46.143 6.57115 44.3837 6.57115 42.2144C6.57115 40.7109 9.03258 39.4073 12.6426 38.7473C7.18972 34.1344 0.142578 25.2687 0.142578 18.3001C0.142578 8.42871 8.13686 0.428711 17.9997 0.428711C27.8619 0.428711 35.8569 8.43014 35.8569 18.3001C35.8569 25.268 28.8097 34.1344 23.3569 38.7473ZM7.99972 42.2144C7.99972 43.0401 12.4769 44.7144 17.9997 44.7144C23.5226 44.7144 27.9997 43.2159 27.9997 42.2144C27.9997 41.4573 25.4483 40.4259 21.8283 39.9616C21.4997 40.2044 21.1826 40.4244 20.8769 40.6244C22.5711 40.8716 23.714 41.3316 23.714 41.8573C23.714 42.6459 21.1554 43.2859 17.9997 43.2859C14.844 43.2859 12.2854 42.6459 12.2854 41.8573C12.2854 41.3316 13.4283 40.8716 15.1226 40.6237C14.8254 40.4309 14.5169 40.2166 14.1983 39.9823C10.564 40.4859 7.99972 41.5909 7.99972 42.2144ZM17.9997 1.85228C8.92329 1.85228 1.56401 9.20228 1.56401 18.2694C1.56401 27.303 15.4783 40.3309 17.9697 40.4287H18.0311C20.5211 40.3309 34.4354 27.303 34.4354 18.2694C34.4354 9.20228 27.0754 1.85228 17.9997 1.85228ZM17.9997 30.4287C11.2926 30.4287 5.85686 24.993 5.85686 18.2859C5.85686 11.5787 11.2926 6.143 17.9997 6.143C24.7069 6.143 30.1426 11.5787 30.1426 18.2859C30.1426 24.993 24.7069 30.4287 17.9997 30.4287ZM17.9997 7.56085C12.0761 7.56085 7.27472 12.3623 7.27472 18.2859C7.27472 24.2094 12.0761 29.0101 17.9997 29.0101C23.9226 29.0101 28.7247 24.2087 28.7247 18.2859C28.7247 12.363 23.9226 7.56085 17.9997 7.56085ZM25.1426 20.4287H22.9997C22.6047 20.4287 22.2854 20.1087 22.2854 19.7144L21.624 18.1259L20.8569 20.4287C20.9611 20.7859 20.7262 20.9701 20.3612 21.0801C20.3347 21.0916 20.309 21.1001 20.2812 21.1073L20.2597 21.1144C20.2169 21.1251 20.1833 21.1101 20.1433 21.1116C20.1076 21.1116 20.0719 21.1259 20.029 21.1144L20.0076 21.1073C19.979 21.1001 19.9576 21.093 19.929 21.0801C19.5647 20.9694 19.329 20.7844 19.4362 20.4287L18.5861 15.7573L16.5711 23.2859C16.6754 23.643 16.4404 23.8273 16.0754 23.9373C16.049 23.9487 16.0233 23.9566 15.9954 23.9637C15.9883 23.9637 15.9811 23.9637 15.974 23.9709C15.9311 23.978 15.8976 23.9637 15.8576 23.9637C15.8219 23.9637 15.7861 23.978 15.7433 23.9637L15.7219 23.9566C15.6933 23.9494 15.6719 23.9423 15.6433 23.928C15.279 23.8151 15.0433 23.6301 15.1504 23.2744L14.2261 18.1959L13.714 19.7144C13.714 20.1087 13.3947 20.4287 12.9997 20.4287H10.8569C10.4619 20.4287 10.1426 20.1087 10.1426 19.7144C10.1426 19.3201 10.4619 19.0001 10.8569 19.0001H12.5233L13.714 15.4287C13.644 15.193 13.774 15.0244 13.9747 14.9001C14.084 14.7744 14.2262 14.7101 14.3876 14.7273C14.4019 14.7237 14.414 14.7173 14.4283 14.7144C14.6676 14.6559 14.8226 14.7716 14.9354 14.9459C15.0969 15.0651 15.1983 15.2209 15.1426 15.4287L15.9926 20.1001L17.9997 12.5716C17.9069 12.2573 18.1526 12.0573 18.4733 11.9359C18.5126 11.9173 18.5519 11.9044 18.5947 11.8959C18.6354 11.8837 18.6733 11.8673 18.714 11.8573C18.9283 11.8044 19.0797 11.8873 19.1904 12.0316C19.3933 12.1459 19.5047 12.3101 19.4283 12.5716L20.3526 17.6559L20.8569 16.143C20.864 16.118 20.8783 16.0944 20.8869 16.0694C20.8904 16.0551 20.899 16.043 20.9033 16.0294C20.9361 15.9509 20.9747 15.8723 21.0247 15.7937L21.0304 15.7866C21.1426 15.6151 21.2947 15.5009 21.4854 15.4723C21.514 15.4651 21.5404 15.4437 21.5711 15.4366C21.7854 15.3866 21.9369 15.4694 22.0469 15.6137C22.2504 15.728 22.3612 15.8923 22.2854 16.1537L23.4283 19.0109H25.1426C25.5376 19.0109 25.8569 19.3323 25.8569 19.7251C25.8569 20.118 25.5376 20.4394 25.1426 20.4394V20.4287ZM5.35686 40.1244C5.52829 40.2887 5.73544 40.5294 5.71401 41.143C5.70686 41.3259 5.55901 41.4094 5.41401 41.4916C4.31686 41.7344 3.67258 41.9866 3.67258 42.2144C3.67258 42.4644 4.21686 42.768 5.14401 43.0751V43.2859C5.87972 43.8759 6.05115 44.5987 5.65329 44.9216C3.58044 44.3109 2.28544 43.4359 2.28544 42.2144C2.28544 41.3101 3.45686 40.6251 5.35686 40.1244ZM30.6904 41.3859C30.5211 41.1459 30.2861 40.9001 30.2861 40.6523C30.2861 40.4559 30.5361 40.2573 30.7076 40.058C32.5719 40.558 33.7147 41.258 33.7147 42.2151C33.7147 43.4151 32.4361 44.2937 30.3647 44.908C30.3219 44.8294 30.2861 44.7437 30.2861 44.6509C30.2861 44.3294 30.8576 43.958 30.8576 43.558V43.2794C31.779 42.9509 32.3147 42.5937 32.3147 42.2223C32.3147 41.9201 31.7219 41.6401 30.6933 41.3937L30.6904 41.3859Z" fill="#5CC773"/>
</svg>

<svg width="36" height="47" fill="none" xmlns="http://www.w3.org/2000/svg">
    <path fill-rule="evenodd" clip-rule="evenodd" d="M23.357 38.747c3.61.66 6.071 1.965 6.071 3.467 0 2.17-5.117 3.929-11.428 3.929-6.312 0-11.429-1.76-11.429-3.929 0-1.503 2.462-2.807 6.072-3.467C7.19 34.134.143 25.27.143 18.3.143 8.43 8.137.43 18 .43c9.862 0 17.857 8.001 17.857 17.871 0 6.968-7.047 15.834-12.5 20.447zM8 42.214c0 .826 4.477 2.5 10 2.5s10-1.498 10-2.5c0-.757-2.552-1.788-6.172-2.252-.328.242-.645.462-.951.662 1.694.248 2.837.708 2.837 1.233 0 .789-2.559 1.429-5.714 1.429-3.156 0-5.715-.64-5.715-1.429 0-.525 1.143-.985 2.838-1.233a19.26 19.26 0 0 1-.925-.642C10.564 40.486 8 41.591 8 42.214zM18 1.852c-9.077 0-16.436 7.35-16.436 16.417 0 9.034 13.914 22.062 16.406 22.16h.061c2.49-.098 16.404-13.126 16.404-22.16 0-9.067-7.36-16.417-16.435-16.417zm0 28.577c-6.707 0-12.143-5.436-12.143-12.143 0-6.707 5.436-12.143 12.143-12.143 6.707 0 12.143 5.436 12.143 12.143 0 6.707-5.436 12.143-12.143 12.143zM18 7.56c-5.924 0-10.725 4.801-10.725 10.725 0 5.923 4.801 10.724 10.725 10.724 5.923 0 10.725-4.801 10.725-10.724S23.923 7.56 18 7.56zm7.143 12.868H23a.714.714 0 0 1-.715-.715l-.661-1.588-.767 2.303c.104.357-.13.541-.496.651a.53.53 0 0 1-.08.027l-.021.007c-.043.011-.077-.004-.117-.002-.035 0-.071.014-.114.002l-.021-.007a.429.429 0 0 1-.079-.027c-.364-.11-.6-.296-.493-.651l-.85-4.672-2.015 7.529c.104.357-.13.541-.496.651a.52.52 0 0 1-.08.027c-.007 0-.014 0-.021.007-.043.007-.076-.007-.116-.007-.036 0-.072.014-.115 0l-.021-.007a.35.35 0 0 1-.079-.029c-.364-.113-.6-.298-.493-.654l-.924-5.078-.512 1.518c0 .395-.32.715-.714.715h-2.143a.714.714 0 1 1 0-1.429h1.666l1.191-3.571c-.07-.236.06-.405.26-.529a.468.468 0 0 1 .414-.173c.014-.003.026-.01.04-.013.24-.058.395.058.507.232.162.12.263.275.208.483l.85 4.671L18 12.572c-.093-.315.153-.515.473-.636a.512.512 0 0 1 .122-.04c.04-.012.078-.029.119-.039.214-.053.366.03.476.175.203.114.315.278.238.54l.925 5.084.504-1.513c.007-.025.021-.049.03-.074.003-.014.012-.026.016-.04.033-.078.072-.157.122-.235l.005-.007a.659.659 0 0 1 .455-.315c.029-.007.055-.028.086-.035.214-.05.366.032.476.177.203.114.314.278.238.54l1.143 2.857h1.715a.715.715 0 0 1 0 1.428v-.01zM5.357 40.124c.171.165.378.405.357 1.019-.007.183-.155.266-.3.349-1.097.242-1.741.495-1.741.722 0 .25.544.554 1.471.861v.21c.736.59.907 1.314.51 1.637-2.074-.611-3.369-1.486-3.369-2.708 0-.904 1.172-1.589 3.072-2.09zm25.333 1.262c-.169-.24-.404-.486-.404-.734 0-.196.25-.395.422-.594 1.864.5 3.007 1.2 3.007 2.157 0 1.2-1.279 2.079-3.35 2.693a.543.543 0 0 1-.079-.257c0-.322.572-.693.572-1.093v-.279c.921-.328 1.457-.685 1.457-1.057 0-.302-.593-.582-1.622-.828l-.003-.008z" fill="#5CC773"/>
</svg>
